symbolic/22x22/panel/ladi-stopped.svg

<svg xmlns="http://www.w3.org/2000/svg" width="22" height="22" version="1.1">
 <defs>
  <style id="current-color-scheme" type="text/css">
   .ColorScheme-Text { color:#323a41; } .ColorScheme-Highlight { color:#4285f4; } .ColorScheme-NeutralText { color:#ff9800; } .ColorScheme-PositiveText { color:#4caf50; } .ColorScheme-NegativeText { color:#f44336; }
  </style>
 </defs>
 <rect style="fill:currentColor" class="ColorScheme-Text" width="8" height="8" x="14" y="12" rx="2" ry="2"/>
 <path style="fill:currentColor" class="ColorScheme-Text" d="m 18.56551,3.0031151 c -0.13338,-0.013832 -0.342365,0.01732 -0.728515,0.1152471 -0.768649,0.1949282 -0.930631,0.2539411 -0.921875,0.4219215 0.0049,0.094542 0.05525,0.1792495 0.191406,0.3320679 l -0.564453,0.562562 -0.154297,-0.1543139 c -0.04221,-0.042191 -0.09726,-0.062507 -0.152344,-0.062507 -0.05508,0 -0.110137,0.020316 -0.152344,0.062507 l -0.21875,0.2187741 1.652344,1.6232259 0.205078,-0.2051007 c 0.08441,-0.084382 0.08441,-0.2203388 0,-0.3047212 L 17.57137,5.4623706 18.135823,4.8978553 c 0.146377,0.1289882 0.227098,0.1779931 0.326172,0.189474 0.161676,0.018734 0.200243,-0.1736434 0.40625,-0.9395567 0.203467,-0.7564702 0.152188,-0.8089235 -0.02539,-0.9864369 -0.08481,-0.08478 -0.143964,-0.1443891 -0.277345,-0.1582206 z M 15.506916,4.8568352 10.702229,9.662051 12.338948,11.296998 17.15926,6.480061 Z M 9.3916821,9.857386 c -0.05764,7.3e-5 -0.113981,0.02221 -0.158203,0.06641 L 4.204182,14.949741 c -0.08844,0.08841 -0.08822,0.230207 0,0.318395 l 2.523438,2.521762 c 0.08822,0.08819 0.229915,0.08841 0.318359,0 l 5.027344,-5.025945 c 0.08844,-0.08841 0.08822,-0.230207 0,-0.318395 L 9.5518381,9.923796 c -0.04411,-0.04409 -0.102517,-0.06649 -0.160156,-0.06641 z M 3.719807,16.197929 3.161214,16.75463 c -0.214952,0.214873 -0.214952,0.560604 0,0.775477 l 1.308593,1.308738 c 0.214952,0.214873 0.562392,0.214873 0.777344,0 l 0.556641,-0.556702 z"/>
</svg>

<svg xmlns="http://www.w3.org/2000/svg" width="22" height="22"><defs><style id="current-color-scheme" type="text/css">.ColorScheme-Text{color:#323a41}</style></defs><rect style="fill:currentColor" class="ColorScheme-Text" width="8" height="8" x="14" y="12" rx="2" ry="2"/><path style="fill:currentColor" class="ColorScheme-Text" d="M18.566 3.003c-.134-.014-.343.017-.729.115-.769.195-.93.254-.922.422.005.095.055.18.192.332l-.565.563-.154-.154a.214.214 0 0 0-.153-.063c-.055 0-.11.02-.152.063l-.219.218 1.653 1.624.205-.206a.215.215 0 0 0 0-.304l-.15-.15.564-.565c.146.129.227.178.326.19.162.018.2-.174.406-.94.204-.757.152-.81-.025-.987-.085-.084-.144-.144-.277-.158zm-3.06 1.854-4.804 4.805 1.637 1.635 4.82-4.817zm-6.114 5a.222.222 0 0 0-.159.067L4.204 14.95a.224.224 0 0 0 0 .318l2.524 2.522c.088.088.23.088.318 0l5.027-5.026a.224.224 0 0 0 0-.318L9.552 9.924a.226.226 0 0 0-.16-.067zm-5.672 6.34-.559.558a.547.547 0 0 0 0 .775L4.47 18.84a.55.55 0 0 0 .777 0l.557-.557z"/></svg>
